svg/u1f375.svg

<svg viewBox="0 0 128 128" xmlns="http://www.w3.org/2000/svg">
  <path d="M42.09,113.09c0,0-0.45,4.18,0.3,5.52c0.75,1.34,4.63,5.82,21.19,6.12s21.19-4.48,21.78-5.37 c0.6-0.9,0-5.82,0-5.82L42.09,113.09z" fill="#5F989E"/>
  <path d="M64.77,31.77c-26.43-0.78-39.39,10.3-39.69,16.56c-0.22,4.68,0.3,32.38,0.75,41.03 s2.09,15.07,6.71,20.14c4.2,4.61,12.09,10.15,31.63,10.3c19.1,0.15,26.41-6.42,30.14-10.15c3.73-3.73,5.97-9.1,6.86-18.35 c0.8-8.23,0.6-39.09,0.45-42.82C101.37,42.23,89.98,32.52,64.77,31.77z" fill="#BACDD2"/>
  <path d="M33.43,64.82c-4.63-0.56-3.8,21.21-1.67,29.64c1.82,7.19,5.93,12.97,9.26,11.3 c2.59-1.3-1.9-9.79-3.11-19.28C36.25,73.42,37.76,65.34,33.43,64.82z" fill="#DCEDF6"/>
  <path d="M31.58,49.63c-0.93,6.02,8.98,14.25,31.3,14.45C84,64.27,95.86,56.12,95.86,50.38 c0-6.02-9.91-12.87-32.79-12.97C40.47,37.32,32.38,44.42,31.58,49.63z" fill="#EEF9FF"/>
  <path d="M34.78,56.44c4.5,4.06,13.73,7.52,28.11,7.65c13.84,0.12,23.7-3.34,28.85-7.35 c-2.18-3.86-10.06-8.27-28.76-8.77C45.47,47.5,36.86,53.62,34.78,56.44z" fill="#7DB240"/>
  <path d="M78.16,62.57c4.51-1.02,8.21-2.48,11.04-4.13c0.94-0.55-3.81-7.13-22.24-7.5 c-4.38-0.09-7.28,0.5-7.32,1.67c-0.09,2.78,7.38,1.4,11.95,3.89C75.52,58.63,77.33,60.75,78.16,62.57z" fill="#AAD876"/>
  <path d="M61.2,16c-0.5-0.3-4.32,1.54-7.89,3.61c-4.83,2.8-9.5,7.24-8.2,14.93 c1.52,9.02,15.1,11.48,16.02,10.74c0.93-0.74-6.52-7.91-5.63-14.92C56.45,22.84,63.24,17.21,61.2,16z" opacity="0.6" fill="#DCEDF6"/>
  <path d="M71.28,2.06c-2.56,2.84,4.79,4.62,1.68,10.92S60.45,22.8,60.45,31.87 s10.92,14.86,12.09,13.94c1.18-0.92-2.22-7.67,3.19-13.85c5.88-6.72,11.59-13.18,8.14-22.17C80.85,1.9,72.79,0.38,71.28,2.06z" opacity="0.6" fill="#DCEDF6"/>
</svg>

<svg viewBox="0 0 128 128" xmlns="http://www.w3.org/2000/svg">
  <defs/>
  <path d="M42.09,113.09 C42.09,113.09 41.64,117.27 42.39,118.61 C43.14,119.95 47.02,124.43 63.58,124.73 C80.14,125.03 84.77,120.25 85.36,119.36 C85.96,118.46 85.36,113.54 85.36,113.54 L42.09,113.09 Z" fill="#5F989E"/>
  <path d="M64.77,31.77 C38.34,30.99 25.38,42.07 25.08,48.33 C24.86,53.01 25.38,80.71 25.83,89.36 C26.28,98.01 27.92,104.43 32.54,109.5 C36.74,114.11 44.63,119.65 64.17,119.8 C83.27,119.95 90.58,113.38 94.31,109.65 C98.04,105.92 100.28,100.55 101.17,91.3 C101.97,83.07 101.77,52.21 101.62,48.48 C101.37,42.23 89.98,32.52 64.77,31.77 Z" fill="#BACDD2"/>
  <path d="M33.43,64.82 C28.8,64.26 29.63,86.03 31.76,94.46 C33.58,101.65 37.69,107.43 41.02,105.76 C43.61,104.46 39.12,95.97 37.91,86.48 C36.25,73.42 37.76,65.34 33.43,64.82 Z" fill="#DCEDF6"/>
  <path d="M31.58,49.63 C30.65,55.65 40.56,63.88 62.88,64.08 C84,64.27 95.86,56.12 95.86,50.38 C95.86,44.36 85.95,37.51 63.07,37.41 C40.47,37.32 32.38,44.42 31.58,49.63 Z" fill="#EEF9FF"/>
  <path d="M34.78,56.44 C39.28,60.5 48.51,63.96 62.89,64.09 C76.73,64.21 86.59,60.75 91.74,56.74 C89.56,52.88 81.68,48.47 62.98,47.97 C45.47,47.5 36.86,53.62 34.78,56.44 Z" fill="#7DB240"/>
  <path d="M78.16,62.57 C82.67,61.55 86.37,60.09 89.2,58.44 C90.14,57.89 85.39,51.31 66.96,50.94 C62.58,50.85 59.68,51.44 59.64,52.61 C59.55,55.39 67.02,54.01 71.59,56.5 C75.52,58.63 77.33,60.75 78.16,62.57 Z" fill="#AAD876"/>
  <path d="M61.2,16 C60.7,15.7 56.88,17.54 53.31,19.61 C48.48,22.41 43.81,26.85 45.11,34.54 C46.63,43.56 60.21,46.02 61.13,45.28 C62.06,44.54 54.61,37.37 55.5,30.36 C56.45,22.84 63.24,17.21 61.2,16 Z" fill="#DCEDF6" opacity="0.6"/>
  <path d="M71.28,2.06 C68.72,4.9 76.07,6.68 72.96,12.98 C69.85,19.28 60.45,22.8 60.45,31.87 C60.45,40.94 71.37,46.73 72.54,45.81 C73.72,44.89 70.32,38.14 75.73,31.96 C81.61,25.24 87.32,18.78 83.87,9.79 C80.85,1.9 72.79,0.38 71.28,2.06 Z" fill="#DCEDF6" opacity="0.6"/>
</svg>
